img/illustrations/Filing_a_declaration.svg

<svg width="145" height="145" viewBox="0 0 145 145" fill="none" xmlns="http://www.w3.org/2000/svg">
<path d="M5 119.96H124.62" stroke="#007B64" stroke-width="2" stroke-linecap="round" stroke-linejoin="round"/>
<path d="M129.12 119.96H140" stroke="#007B64" stroke-width="2" stroke-linecap="round" stroke-linejoin="round"/>
<path d="M40.4502 119.3C40.4502 119.3 62.6902 110.47 78.6902 113.47C83.3479 114.334 88.1454 114.057 92.673 112.664C97.2006 111.271 101.324 108.803 104.69 105.47V114.47L102.24 118.53L100.95 119.96H41.6902L40.4502 119.3Z" fill="#F1F1F1"/>
<path d="M30.8198 29.13C30.8198 29.13 28.1998 46.13 28.3098 52.9C28.4198 59.67 22.8598 67.64 22.8598 67.64L21.2598 33.81L22.4898 30.99L24.3698 29.7L30.8198 29.13Z" fill="#EBEBEB"/>
<path d="M32.53 116.31C30.856 116.411 29.21 115.845 27.9524 114.736C26.6948 113.626 25.9281 112.064 25.82 110.39L21.17 36.39C21.1172 35.56 21.2284 34.7277 21.4973 33.9406C21.7663 33.1536 22.1877 32.4273 22.7375 31.8032C23.2872 31.1791 23.9546 30.6695 24.7015 30.3035C25.4483 29.9375 26.26 29.7222 27.09 29.67L31.22 29.41" stroke="#007B64" stroke-width="2" stroke-linecap="round" stroke-linejoin="round"/>
<path d="M104.44 101.99V113.84C104.44 114.645 104.281 115.441 103.973 116.184C103.665 116.928 103.213 117.603 102.644 118.171C102.074 118.739 101.399 119.19 100.655 119.497C99.9113 119.804 99.1144 119.961 98.3098 119.96H43.2098C41.5867 119.96 40.0301 119.315 38.8823 118.168C37.7346 117.02 37.0898 115.463 37.0898 113.84V28.12C37.0898 26.4969 37.7346 24.9403 38.8823 23.7925C40.0301 22.6448 41.5867 22 43.2098 22H86.5898L104.44 40.88" fill="white"/>
<path d="M104.44 92.81V113.81C104.44 114.615 104.281 115.411 103.973 116.154C103.665 116.898 103.213 117.573 102.644 118.141C102.074 118.709 101.399 119.16 100.655 119.467C99.9113 119.774 99.1144 119.931 98.3098 119.93H43.2098C41.5867 119.93 40.0301 119.285 38.8823 118.138C37.7346 116.99 37.0898 115.433 37.0898 113.81V28.12C37.0898 26.4969 37.7346 24.9403 38.8823 23.7925C40.0301 22.6448 41.5867 22 43.2098 22H86.1498C86.2886 21.9991 86.4261 22.0271 86.5535 22.0821C86.6809 22.1372 86.7955 22.2182 86.8898 22.32L104.44 40.88" stroke="#007B64" stroke-width="2.04" stroke-linecap="round" stroke-linejoin="round"/>
<path d="M104.44 41.14V50.27V53.42" stroke="#007B64" stroke-width="2" stroke-linecap="round" stroke-linejoin="round"/>
<path d="M96.2698 40.88H91.1698C89.5467 40.88 87.99 40.2352 86.8423 39.0875C85.6946 37.9398 85.0498 36.3831 85.0498 34.76V29.65" stroke="#007B64" stroke-width="2" stroke-linecap="round" stroke-linejoin="round"/>
<path d="M44.27 62.5H81.69" stroke="#007B64" stroke-width="2" stroke-linecap="round" stroke-linejoin="round"/>
<path d="M44.27 54.17H81.69" stroke="#007B64" stroke-width="2" stroke-linecap="round" stroke-linejoin="round"/>
<path d="M44.27 70.84H81.69" stroke="#007B64" stroke-width="2" stroke-linecap="round" stroke-linejoin="round"/>
<path d="M44.27 79.17H81.69" stroke="#007B64" stroke-width="2" stroke-linecap="round" stroke-linejoin="round"/>
<path d="M75.6901 107.47C75.6901 107.47 68.6901 102.47 61.6901 105.47C54.6901 108.47 45.6901 106.47 47.6901 101.47" stroke="#FFC463" stroke-width="2" stroke-linecap="round" stroke-linejoin="round"/>
<path d="M118.74 52.7999C119.484 52.8402 120.19 53.137 120.74 53.6399L122.32 55.0999C123.82 56.4799 123.68 59.0999 122.02 60.8499L88.3198 97.3399L78.0498 101.91L81.3298 90.9099L112.55 57.1099L113.96 55.5899" fill="white"/>
<path d="M114.443 68.6045L111.77 66.1346L85.442 94.6355L88.1158 97.1054L114.443 68.6045Z" fill="#EBEBEB"/>
<path d="M111.25 58.5499L107.69 62.4699L114.43 68.5999L118.57 64.6499L111.5 58.2799L111.25 58.5499Z" fill="#FFC463"/>
<path d="M114.7 68.8399L107.71 62.3799" stroke="#FFC463" stroke-width="2" stroke-linecap="round" stroke-linejoin="round"/>
<path d="M111.24 58.5499L118.24 65.0099" stroke="#FFC463" stroke-width="2" stroke-linecap="round" stroke-linejoin="round"/>
<path d="M118.74 52.7999C119.484 52.8402 120.19 53.137 120.74 53.6399L122.32 55.0999C123.82 56.4799 123.68 59.0999 122.02 60.8499L88.3198 97.3399L78.0498 101.91L81.3298 90.9099L112.55 57.1099L113.96 55.5899" stroke="#007B64" stroke-width="2" stroke-linecap="round" stroke-linejoin="round"/>
<path d="M81.3799 90.8799L88.3699 97.3399" stroke="#007B64" stroke-width="2" stroke-miterlimit="10" stroke-linecap="round"/>
</svg>

<svg width="145" height="145" fill="none" xmlns="http://www.w3.org/2000/svg"><path d="M5 119.96h119.62m4.5 0H140" stroke="#007B64" stroke-width="2" stroke-linecap="round" stroke-linejoin="round"/><path d="M40.45 119.3s22.24-8.83 38.24-5.83a29.348 29.348 0 0026-8v9l-2.45 4.06-1.29 1.43H41.69l-1.24-.66z" fill="#F1F1F1"/><path d="M30.82 29.13s-2.62 17-2.51 23.77c.11 6.77-5.45 14.74-5.45 14.74l-1.6-33.83 1.23-2.82 1.88-1.29 6.45-.57z" fill="#EBEBEB"/><path d="M32.53 116.31a6.344 6.344 0 01-6.71-5.92l-4.65-74a6.333 6.333 0 015.92-6.72l4.13-.26" stroke="#007B64" stroke-width="2" stroke-linecap="round" stroke-linejoin="round"/><path d="M104.44 101.99v11.85a6.12 6.12 0 01-6.13 6.12h-55.1a6.123 6.123 0 01-6.12-6.12V28.12A6.12 6.12 0 0143.21 22h43.38l17.85 18.88" fill="#fff"/><path d="M104.44 92.81v21a6.12 6.12 0 01-6.13 6.12h-55.1a6.123 6.123 0 01-6.12-6.12V28.12A6.12 6.12 0 0143.21 22h42.94a1.002 1.002 0 01.74.32l17.55 18.56" stroke="#007B64" stroke-width="2.04" stroke-linecap="round" stroke-linejoin="round"/><path d="M104.44 41.14v12.28m-8.17-12.54h-5.1a6.12 6.12 0 01-6.12-6.12v-5.11M44.27 62.5h37.42m-37.42-8.33h37.42M44.27 70.84h37.42m-37.42 8.33h37.42" stroke="#007B64" stroke-width="2" stroke-linecap="round" stroke-linejoin="round"/><path d="M75.69 107.47s-7-5-14-2-16 1-14-4" stroke="#FFC463" stroke-width="2" stroke-linecap="round" stroke-linejoin="round"/><path d="M118.74 52.8a3.22 3.22 0 012 .84l1.58 1.46c1.5 1.38 1.36 4-.3 5.75l-33.7 36.49-10.27 4.57 3.28-11 31.22-33.8 1.41-1.52" fill="#fff"/><path d="M114.443 68.605l-2.673-2.47-26.328 28.5 2.674 2.47 26.327-28.5z" fill="#EBEBEB"/><path d="M111.25 58.55l-3.56 3.92 6.74 6.13 4.14-3.95-7.07-6.37-.25.27z" fill="#FFC463"/><path d="M114.7 68.84l-6.99-6.46m3.53-3.83l7 6.46" stroke="#FFC463" stroke-width="2" stroke-linecap="round" stroke-linejoin="round"/><path d="M118.74 52.8a3.22 3.22 0 012 .84l1.58 1.46c1.5 1.38 1.36 4-.3 5.75l-33.7 36.49-10.27 4.57 3.28-11 31.22-33.8 1.41-1.52" stroke="#007B64" stroke-width="2" stroke-linecap="round" stroke-linejoin="round"/><path d="M81.38 90.88l6.99 6.46" stroke="#007B64" stroke-width="2" stroke-miterlimit="10" stroke-linecap="round"/></svg>
